Production/EA4S_WordDrawings/SVG/singles_SVG/needle.svg

<?xml version="1.0" encoding="UTF-8" standalone="no"?><!DOCTYPE svg PUBLIC "-//W3C//DTD SVG 1.1//EN" "http://www.w3.org/Graphics/SVG/1.1/DTD/svg11.dtd"><svg width="100%" height="100%" viewBox="0 0 459 437" version="1.1" xmlns="http://www.w3.org/2000/svg" xmlns:xlink="http://www.w3.org/1999/xlink" xml:space="preserve" style="fill-rule:evenodd;clip-rule:evenodd;stroke-linejoin:round;stroke-miterlimit:1.41421;"><g id="needle"><path d="M41.341,1.05c-5.307,-1.441 -10.611,2.664 -14.394,5.915c-5.325,4.578 -8.212,11.261 -9.115,18.125c-0.922,7 1.029,14.11 3.566,20.567c2.802,7.127 7.126,15.627 13.066,20.623c1.351,1.137 3.423,-0.57 3.007,-2.146c-1.447,-5.491 -4.827,-10.513 -7.454,-15.508c-2.757,-5.242 -5.057,-10.815 -6.166,-16.65c-1.159,-6.098 -0.306,-12.33 2.31,-17.929c2.86,-6.126 8.773,-8.974 14.762,-11.048c0.756,-0.264 1.579,-1.633 0.418,-1.949Z" style="fill:#010101;fill-rule:nonzero;"/><path d="M55.362,6.717c10.706,7.33 20.673,14.417 29.452,24.1c8.517,9.393 15.739,19.832 23.341,29.948c18.646,24.812 36.645,50.021 54.068,75.709c17.813,26.262 34.991,52.995 53.827,78.543c19.022,25.803 39.396,50.584 59.797,75.3c14.323,17.354 28.641,34.65 42.22,52.598c11.664,15.415 23.468,30.61 36.52,44.887c7.97,8.719 16.312,17.099 24.415,25.691c4.141,4.393 8.251,8.815 12.218,13.366c1.424,1.634 2.842,3.286 4.127,5.032c0.202,0.273 1.397,2.106 1.001,1.423c0.782,1.346 -0.023,1.646 0.379,-0.854c-1.163,7.229 9.396,4.726 10.289,-0.834c0.746,-4.634 -4.496,-9.154 -7.234,-12.28c-5.701,-6.509 -11.744,-12.727 -17.752,-18.95c-13.449,-13.936 -26.872,-27.719 -39.064,-42.803c-9.602,-11.875 -18.674,-24.166 -28.114,-36.166c-9.726,-12.359 -19.953,-24.335 -29.969,-36.457c-20.427,-24.722 -40.777,-49.521 -59.922,-75.257c-29.187,-39.234 -54.528,-81.19 -83.474,-120.608c-12.763,-17.381 -25.98,-34.539 -39.797,-51.101c-11.724,-14.056 -26.732,-29.272 -45.471,-32.689c-0.681,-0.124 -1.578,0.908 -0.857,1.402Z" style="fill:#010101;fill-rule:nonzero;"/><path d="M42.941,72.575c13.603,23.505 36.678,40.56 55.527,59.653c10.937,11.078 20.601,23.435 30.806,35.179c10.68,12.29 21.471,24.482 32.33,36.611c21.572,24.095 42.954,48.417 64.971,72.106c21.281,22.897 43.731,44.683 65.979,66.634c21.219,20.938 42.93,41.224 64.687,61.597c6.082,5.696 12.916,10.552 19.571,15.547c3.652,2.74 7.205,5.56 10.688,8.509c1.146,0.969 4.801,3.969 4.9,4.747c0.577,4.454 7.408,1.369 6.943,-2.227c-0.725,-5.593 -9.547,-10.07 -13.51,-13.073c-7.441,-5.645 -15.327,-10.857 -22.275,-17.118c-22.495,-20.267 -44.225,-41.313 -65.775,-62.569c-22.258,-21.953 -44.63,-43.79 -66.021,-66.6c-22.121,-23.588 -43.519,-47.909 -65.159,-71.938c-10.459,-11.614 -20.896,-23.247 -31.239,-34.965c-10.363,-11.743 -20.244,-24.016 -31.22,-35.196c-9.788,-9.973 -20.609,-18.763 -30.874,-28.219c-10.148,-9.353 -19.682,-19.381 -28.582,-29.925c-0.625,-0.742 -2.211,0.445 -1.747,1.247Z" style="fill:#010101;fill-rule:nonzero;"/><path d="M41.131,38.328c-2.396,-4.632 -2.422,-9.521 -1.33,-14.52c-0.927,0.986 -1.854,1.972 -2.782,2.958c9.752,-2.07 18.063,1.002 25.426,7.417c7.764,6.764 14.95,15.063 21.201,23.219c5.397,7.041 8.308,14.235 10.948,22.564c1.303,4.11 3.58,11.461 9.091,7.146c3.136,-2.456 0.811,-6.463 -2.823,-4.706c2.789,-1.349 3.699,1.363 2.409,-1.505c-0.708,-1.573 -1.2,-3.257 -1.729,-4.894c-1.104,-3.409 -2.109,-6.848 -3.416,-10.188c-3.592,-9.184 -10.82,-17.264 -17.393,-24.417c-5.96,-6.487 -12.176,-13.249 -19.83,-17.755c-7.438,-4.379 -16.044,-4.558 -24.178,-2.322c-1.652,0.455 -2.75,2.035 -2.843,3.68c-0.331,5.823 0.973,10.651 4.884,15.012c0.878,0.978 2.946,-0.566 2.365,-1.689Z" style="fill:#010101;fill-rule:nonzero;"/><path d="M44.928,48.583c6.464,13.292 18.496,24.493 29.612,33.869c4.64,3.914 10.177,8.711 16.276,10.056c4.278,0.941 12.592,-6.017 7.023,-9.062c-1.118,-0.61 -2.741,-0.113 -3.593,0.748c-0.885,0.894 -1.564,1.792 -1.91,3.012c-0.131,0.462 1.03,-1.662 2.141,-1.572c-1.836,-0.148 -3.603,-1.316 -5.143,-2.222c-5.609,-3.293 -10.646,-7.688 -15.536,-11.938c-5.493,-4.774 -10.892,-9.648 -16.316,-14.499c-3.588,-3.208 -7.497,-6.123 -10.781,-9.658c-0.673,-0.724 -2.189,0.41 -1.773,1.266Z" style="fill:#010101;fill-rule:nonzero;"/><path d="M91.317,63.336c-9.974,-3.904 -22.945,1.896 -31.849,6.449c-11.072,5.664 -20.539,14 -28.862,23.131c-16.471,18.065 -26.382,41.389 -29.663,65.509c-1.633,12.004 -0.975,24.448 3.915,35.656c4.329,9.922 12.406,17.28 21.497,22.816c16.05,9.773 36.283,12.511 50.363,25.532c13.79,12.753 13.992,31.177 14.431,48.613c0.087,3.488 5.121,1.72 5.908,-0.479c8.297,-23.167 1.429,-48.463 -19.136,-62.364c-15.845,-10.711 -35.978,-13.293 -51.083,-25.336c-20.953,-16.704 -17.497,-44.925 -10.373,-67.716c7.16,-22.902 22.93,-43.544 43.487,-56.045c4.536,-2.759 9.359,-4.888 14.422,-6.475c4.969,-1.558 10.138,-2.076 15.044,-3.77c1.604,-0.55 4.817,-4.379 1.899,-5.521Z" style="fill:#010101;fill-rule:nonzero;"/><path d="M118.08,60.738c15.702,-1.153 31.053,-1.463 46.713,0.596c13.357,1.755 26.521,5.135 39.396,9.049c21.042,6.396 41.43,15.328 59.963,27.208c17.645,11.31 33.146,25.823 44.957,43.172c12.066,17.721 19.688,39.525 22.896,60.647c0.783,5.16 1.297,10.347 2.195,15.49c0.556,3.168 4.916,1.348 5.283,-1.066c3.366,-22.159 -1.699,-45.694 -11.307,-65.714c-9.034,-18.824 -22.54,-35.143 -38.492,-48.505c-16.55,-13.863 -35.534,-24.453 -55.47,-32.604c-23.324,-9.536 -48.817,-16.541 -73.981,-18.296c-13.979,-0.977 -27.914,-0.339 -41.554,2.834c-3.491,0.814 -5.534,7.552 -0.599,7.189Z" style="fill:#010101;fill-rule:nonzero;"/><path d="M338.087,229.621c-4.603,6.66 -3.655,14.616 -1.636,22.087c1.97,7.281 4.575,14.267 8.217,20.878c7.127,12.937 17.071,24.091 28.621,33.239c11.787,9.336 25.198,16.186 39.64,20.356c6.821,1.971 13.897,3.069 20.987,3.358c7.099,0.29 15.705,-0.167 21.989,-3.792c2.033,-1.172 3.808,-5.136 0.485,-5.929c-5.404,-1.289 -11.867,-0.289 -17.424,-0.491c-6.7,-0.242 -13.328,-1.367 -19.813,-3.041c-12.727,-3.284 -24.603,-9.604 -35.201,-17.278c-21.961,-15.905 -40.516,-42.098 -44.037,-69.299c-0.128,-1.006 -1.396,-0.715 -1.828,-0.088Z" style="fill:#010101;fill-rule:nonzero;"/><path d="M102.056,119.013c7.468,9.972 16.217,19.018 24.645,28.174c8.576,9.318 17.136,18.652 25.713,27.97c17.288,18.778 34.461,37.658 51.391,56.761c16.734,18.881 32.68,38.435 49.389,57.331c15.994,18.089 32.53,36.633 51.357,51.827c0.842,0.681 2.489,-0.643 1.696,-1.489c-16.594,-17.773 -34.22,-34.468 -50.379,-52.688c-16.735,-18.87 -32.706,-38.405 -49.457,-57.271c-16.948,-19.086 -34.271,-37.839 -51.642,-56.54c-8.621,-9.281 -17.3,-18.508 -25.95,-27.763c-8.511,-9.105 -16.864,-18.527 -26.186,-26.821c-0.282,-0.251 -0.811,0.198 -0.577,0.509Z" style="fill:#010101;fill-rule:nonzero;"/></g></svg>

<?xml version="1.0" encoding="UTF-8"?>
<svg width="459px" height="437px" viewBox="0 0 459 437" version="1.1" xmlns="http://www.w3.org/2000/svg" xmlns:xlink="http://www.w3.org/1999/xlink">
    <!-- Generator: Sketch 41 (35326) - http://www.bohemiancoding.com/sketch -->
    <title>needle</title>
    <desc>Created with Sketch.</desc>
    <defs></defs>
    <g id="Page-1" stroke="none" stroke-width="1" fill="none" fill-rule="evenodd">
        <g id="Layer_1" transform="translate(-1177.000000, -2791.000000)" fill="#010101">
            <g id="Layer_1_3_">
                <g id="needle" transform="translate(1177.000000, 2791.000000)">
                    <path d="M41.341,1.05 C36.034,-0.391 30.73,3.714 26.947,6.965 C21.622,11.543 18.735,18.226 17.832,25.09 C16.91,32.09 18.861,39.2 21.398,45.657 C24.2,52.784 28.524,61.284 34.464,66.28 C35.815,67.417 37.887,65.71 37.471,64.134 C36.024,58.643 32.644,53.621 30.017,48.626 C27.26,43.384 24.96,37.811 23.851,31.976 C22.692,25.878 23.545,19.646 26.161,14.047 C29.021,7.921 34.934,5.073 40.923,2.999 C41.679,2.735 42.502,1.366 41.341,1.05 L41.341,1.05 Z" id="Shape"></path>
                    <path d="M55.362,6.717 C66.068,14.047 76.035,21.134 84.814,30.817 C93.331,40.21 100.553,50.649 108.155,60.765 C126.801,85.577 144.8,110.786 162.223,136.474 C180.036,162.736 197.214,189.469 216.05,215.017 C235.072,240.82 255.446,265.601 275.847,290.317 C290.17,307.671 304.488,324.967 318.067,342.915 C329.731,358.33 341.535,373.525 354.587,387.802 C362.557,396.521 370.899,404.901 379.002,413.493 C383.143,417.886 387.253,422.308 391.22,426.859 C392.644,428.493 394.062,430.145 395.347,431.891 C395.549,432.164 396.744,433.997 396.348,433.314 C397.13,434.66 396.325,434.96 396.727,432.46 C395.564,439.689 406.123,437.186 407.016,431.626 C407.762,426.992 402.52,422.472 399.782,419.346 C394.081,412.837 388.038,406.619 382.03,400.396 C368.581,386.46 355.158,372.677 342.966,357.593 C333.364,345.718 324.292,333.427 314.852,321.427 C305.126,309.068 294.899,297.092 284.883,284.97 C264.456,260.248 244.106,235.449 224.961,209.713 C195.774,170.479 170.433,128.523 141.487,89.105 C128.724,71.724 115.507,54.566 101.69,38.004 C89.966,23.948 74.958,8.732 56.219,5.315 C55.538,5.191 54.641,6.223 55.362,6.717 L55.362,6.717 Z" id="Shape"></path>
                    <path d="M42.941,72.575 C56.544,96.08 79.619,113.135 98.468,132.228 C109.405,143.306 119.069,155.663 129.274,167.407 C139.954,179.697 150.745,191.889 161.604,204.018 C183.176,228.113 204.558,252.435 226.575,276.124 C247.856,299.021 270.306,320.807 292.554,342.758 C313.773,363.696 335.484,383.982 357.241,404.355 C363.323,410.051 370.157,414.907 376.812,419.902 C380.464,422.642 384.017,425.462 387.5,428.411 C388.646,429.38 392.301,432.38 392.4,433.158 C392.977,437.612 399.808,434.527 399.343,430.931 C398.618,425.338 389.796,420.861 385.833,417.858 C378.392,412.213 370.506,407.001 363.558,400.74 C341.063,380.473 319.333,359.427 297.783,338.171 C275.525,316.218 253.153,294.381 231.762,271.571 C209.641,247.983 188.243,223.662 166.603,199.633 C156.144,188.019 145.707,176.386 135.364,164.668 C125.001,152.925 115.12,140.652 104.144,129.472 C94.356,119.499 83.535,110.709 73.27,101.253 C63.122,91.9 53.588,81.872 44.688,71.328 C44.063,70.586 42.477,71.773 42.941,72.575 L42.941,72.575 Z" id="Shape"></path>
                    <path d="M41.131,38.328 C38.735,33.696 38.709,28.807 39.801,23.808 C38.874,24.794 37.947,25.78 37.019,26.766 C46.771,24.696 55.082,27.768 62.445,34.183 C70.209,40.947 77.395,49.246 83.646,57.402 C89.043,64.443 91.954,71.637 94.594,79.966 C95.897,84.076 98.174,91.427 103.685,87.112 C106.821,84.656 104.496,80.649 100.862,82.406 C103.651,81.057 104.561,83.769 103.271,80.901 C102.563,79.328 102.071,77.644 101.542,76.007 C100.438,72.598 99.433,69.159 98.126,65.819 C94.534,56.635 87.306,48.555 80.733,41.402 C74.773,34.915 68.557,28.153 60.903,23.647 C53.465,19.268 44.859,19.089 36.725,21.325 C35.073,21.78 33.975,23.36 33.882,25.005 C33.551,30.828 34.855,35.656 38.766,40.017 C39.644,40.995 41.712,39.451 41.131,38.328 L41.131,38.328 Z" id="Shape"></path>
                    <path d="M44.928,48.583 C51.392,61.875 63.424,73.076 74.54,82.452 C79.18,86.366 84.717,91.163 90.816,92.508 C95.094,93.449 103.408,86.491 97.839,83.446 C96.721,82.836 95.098,83.333 94.246,84.194 C93.361,85.088 92.682,85.986 92.336,87.206 C92.205,87.668 93.366,85.544 94.477,85.634 C92.641,85.486 90.874,84.318 89.334,83.412 C83.725,80.119 78.688,75.724 73.798,71.474 C68.305,66.7 62.906,61.826 57.482,56.975 C53.894,53.767 49.985,50.852 46.701,47.317 C46.028,46.593 44.512,47.727 44.928,48.583 L44.928,48.583 Z" id="Shape"></path>
                    <path d="M91.317,63.336 C81.343,59.432 68.372,65.232 59.468,69.785 C48.396,75.449 38.929,83.785 30.606,92.916 C14.135,110.981 4.224,134.305 0.943,158.425 C-0.69,170.429 -0.032,182.873 4.858,194.081 C9.187,204.003 17.264,211.361 26.355,216.897 C42.405,226.67 62.638,229.408 76.718,242.429 C90.508,255.182 90.71,273.606 91.149,291.042 C91.236,294.53 96.27,292.762 97.057,290.563 C105.354,267.396 98.486,242.1 77.921,228.199 C62.076,217.488 41.943,214.906 26.838,202.863 C5.885,186.159 9.341,157.938 16.465,135.147 C23.625,112.245 39.395,91.603 59.952,79.102 C64.488,76.343 69.311,74.214 74.374,72.627 C79.343,71.069 84.512,70.551 89.418,68.857 C91.022,68.307 94.235,64.478 91.317,63.336 L91.317,63.336 Z" id="Shape"></path>
                    <path d="M118.08,60.738 C133.782,59.585 149.133,59.275 164.793,61.334 C178.15,63.089 191.314,66.469 204.189,70.383 C225.231,76.779 245.619,85.711 264.152,97.591 C281.797,108.901 297.298,123.414 309.109,140.763 C321.175,158.484 328.797,180.288 332.005,201.41 C332.788,206.57 333.302,211.757 334.2,216.9 C334.756,220.068 339.116,218.248 339.483,215.834 C342.849,193.675 337.784,170.14 328.176,150.12 C319.142,131.296 305.636,114.977 289.684,101.615 C273.134,87.752 254.15,77.162 234.214,69.011 C210.89,59.475 185.397,52.47 160.233,50.715 C146.254,49.738 132.319,50.376 118.679,53.549 C115.188,54.363 113.145,61.101 118.08,60.738 L118.08,60.738 Z" id="Shape"></path>
                    <path d="M338.087,229.621 C333.484,236.281 334.432,244.237 336.451,251.708 C338.421,258.989 341.026,265.975 344.668,272.586 C351.795,285.523 361.739,296.677 373.289,305.825 C385.076,315.161 398.487,322.011 412.929,326.181 C419.75,328.152 426.826,329.25 433.916,329.539 C441.015,329.829 449.621,329.372 455.905,325.747 C457.938,324.575 459.713,320.611 456.39,319.818 C450.986,318.529 444.523,319.529 438.966,319.327 C432.266,319.085 425.638,317.96 419.153,316.286 C406.426,313.002 394.55,306.682 383.952,299.008 C361.991,283.103 343.436,256.91 339.915,229.709 C339.787,228.703 338.519,228.994 338.087,229.621 L338.087,229.621 Z" id="Shape"></path>
                    <path d="M102.056,119.013 C109.524,128.985 118.273,138.031 126.701,147.187 C135.277,156.505 143.837,165.839 152.414,175.157 C169.702,193.935 186.875,212.815 203.805,231.918 C220.539,250.799 236.485,270.353 253.194,289.249 C269.188,307.338 285.724,325.882 304.551,341.076 C305.393,341.757 307.04,340.433 306.247,339.587 C289.653,321.814 272.027,305.119 255.868,286.899 C239.133,268.029 223.162,248.494 206.411,229.628 C189.463,210.542 172.14,191.789 154.769,173.088 C146.148,163.807 137.469,154.58 128.819,145.325 C120.308,136.22 111.955,126.798 102.633,118.504 C102.351,118.253 101.822,118.702 102.056,119.013 L102.056,119.013 Z" id="Shape"></path>
                </g>
            </g>
        </g>
    </g>
</svg>
